X: 22673
T: Lakes Of Ponchartrain, The
R: waltz
M: 3/4
K: Gmajor
|:D2|G4 e2|d4 e2|B2 BA d2|B4 A2|
G2 GE F2|G4 G2|(G6|G4) d2|
d4 B2|d2 de f2|g4 g2|f2 fe d2|
B4 A2|B2 c2 d2|(e6|e4) d2|
d4 B2|d2 de f2|g4 g2|f2 f2 e2|
d4 B2|B2 c2 d2|(e6|e4) D2|
G4 e2|d4 e2|B2 BA d2|B4 A2|
G2 GE F2|G4 G2|(G6|G4):|

